X:0793
M:C
L:1/8
Q:1/4=120
K:G
e/f/|g>d  g/f/e/a/ (ged)B|(.G.G) Bd eA Ae/f/|g>d g/f/e/a/ g>edB|DD  DE/F/    G2 Ge/f/|
     g>d (g/f/e/)a/ g>edB|  GG```Bd eA AB/c/|Bd``dg       ceea |DD  DE/F/    G2 G   |]

